static/images/icons/mastodon.svg

<svg height="42" viewBox="0 0 42 42" width="42" xmlns="http://www.w3.org/2000/svg" xmlns:xlink="http://www.w3.org/1999/xlink"><linearGradient id="a" gradientTransform="matrix(.42261826 .90630779 -.90630779 .42261826 0 0)"><stop offset="0" stop-color="#59decb"/><stop offset=".6" stop-color="#3b63e7"/><stop offset="1" stop-color="#de59cc"/></linearGradient><mask id="b" fill="#fff"><path d="m-0 0h25v27h-25z" fill="#fff" fill-rule="evenodd"/></mask><g fill="none" fill-rule="evenodd"><circle cx="21" cy="21" fill="url(#a)" r="21"/><path d="m20.50578 16.4109629h-2.7890646v-6.88355399c0-1.45104503-.6060421-2.18755039-1.8182708-2.18755039-1.3403106 0-2.0120542.87368185-2.0120542 2.60126188v3.7677712h-2.7726031v-3.7677712c0-1.72758003-.6718881-2.60126188-2.01219861-2.60126188-1.2122287 0-1.81827085.73650536-1.81827085 2.18755039v6.88355399h-2.78906461v-7.09200988c0-1.44944488.36633999-2.60126187 1.10219674-3.45341443.75881618-.85215256 1.75256936-1.28899349 2.9861691-1.28899349 1.42723863 0 2.50806433.55263359 3.22269453 1.65804624l.694703 1.17320082.6948475-1.17320082c.7144857-1.10541265 1.7953114-1.65804624 3.2226945-1.65804624 1.2334553 0 2.2272085.43684093 2.9861691 1.28899349.7357123.85215256 1.1020523 2.00396955 1.1020523 3.45341443zm4.4932604-7.54645245c0-5.85713053-3.8092428-7.57394591-3.8092428-7.57394591-1.9206497-.88866507-5.2187204-1.26237281-8.6451617-1.29059363h-.0841846c-3.42644129.02822082-6.72234601.40192856-8.64314008 1.29059363 0 0-3.80938719 1.71681538-3.80938719 7.57394591 0 1.34121655-.0259918 2.94485765.01617268 4.64552615.13833414 5.7279547 1.0424156 11.3731381 6.29940169 12.7748695 2.42387981.6463151 4.5049566.7816005 6.1809946.6887918 3.0394523-.1697614 4.7456696-1.092757 4.7456696-1.092757l-.1002128-2.2215899s-2.1720482.6899556-4.6113787.6058749c-2.4168042-.0834987-4.96818827-.26257-5.35907607-3.2517955-.03609972-.2625701-.05414958-.5433236-.05414958-.8381876 0 0 2.3724738.5842002 5.37914755.7229768 1.8384867.0849534 3.5626095-.1085192 5.3137348-.3190117 3.3581407-.4039651 6.2820739-2.4883786 6.649569-4.3929934.5790396-3.000281.5312436-7.32170405.5312436-7.32170405z" fill="#fff" mask="url(#b)" transform="translate(8 8)"/></g></svg>

<?xml version="1.0" encoding="UTF-8"?>
<svg width="42px" height="42px" viewBox="0 0 42 42" version="1.1" xmlns="http://www.w3.org/2000/svg" xmlns:xlink="http://www.w3.org/1999/xlink">
    <title>Group 2</title>
    <defs>
        <polygon id="path-1" points="-5.2102367e-16 0 25 0 25 27 -5.2102367e-16 27"></polygon>
        <linearGradient id="holoGradient" gradientTransform="rotate(65)">
        <stop offset="0%" stop-color="#59DECB" /> 
        <stop offset="60%" stop-color="#3B63E7" />
        <stop offset="100%" stop-color="#DE59CC" />
    </linearGradient>
    </defs>
    <g id="Web" stroke="none" stroke-width="1" fill="none" fill-rule="evenodd">
        <g id="DT_EuroRust-'23_vs.2d" transform="translate(-1222.000000, -5348.000000)">
            <g id="Group-32" transform="translate(165.000000, 5283.000000)">
                <g id="Group-2" transform="translate(1057.000000, 65.000000)">
                    <circle id="Oval" class="icon-oval" fill="url(#holoGradient)" opacity="1" cx="21" cy="21" r="21"></circle>
                    <g id="Group-3" transform="translate(8.000000, 8.000000)">
                        <mask id="mask-2" fill="white">
                            <use xlink:href="#path-1"></use>
                        </mask>
                        <g id="Clip-2"></g>
                        <path class="icon-inner" d="M20.50578,16.4109629 L17.7167154,16.4109629 L17.7167154,9.52740891 C17.7167154,8.07636388 17.1106733,7.33985852 15.8984446,7.33985852 C14.558134,7.33985852 13.8863904,8.21354037 13.8863904,9.9411204 L13.8863904,13.7088916 L11.1137873,13.7088916 L11.1137873,9.9411204 C11.1137873,8.21354037 10.4418992,7.33985852 9.10158869,7.33985852 C7.88935999,7.33985852 7.28331784,8.07636388 7.28331784,9.52740891 L7.28331784,16.4109629 L4.49425323,16.4109629 L4.49425323,9.31895302 C4.49425323,7.86950814 4.86059322,6.71769115 5.59644997,5.86553859 C6.35526615,5.01338603 7.34901933,4.5765451 8.58261907,4.5765451 C10.0098577,4.5765451 11.0906834,5.12917869 11.8053136,6.23459134 L12.5000166,7.40779216 L13.1948641,6.23459134 C13.9093498,5.12917869 14.9901755,4.5765451 16.4175586,4.5765451 C17.6510139,4.5765451 18.6447671,5.01338603 19.4037277,5.86553859 C20.13944,6.71769115 20.50578,7.86950814 20.50578,9.31895302 L20.50578,16.4109629 Z M24.9990404,8.86451045 C24.9990404,3.00737992 21.1897976,1.29056454 21.1897976,1.29056454 C19.2691479,0.401899469 15.9710772,0.028191732 12.5446359,-2.90936346e-05 L12.4604513,-2.90936346e-05 C9.03401001,0.028191732 5.73810529,0.401899469 3.81731122,1.29056454 C3.81731122,1.29056454 0.00792403122,3.00737992 0.00792403122,8.86451045 C0.00792403122,10.205727 -0.0180677695,11.8093681 0.0240967072,13.5100366 C0.162430846,19.2379913 1.06651231,24.8831747 6.3234984,26.2849061 C8.74737821,26.9312212 10.828455,27.0665066 12.504493,26.9736979 C15.5439453,26.8039365 17.2501626,25.8809409 17.2501626,25.8809409 L17.1499498,23.659351 C17.1499498,23.659351 14.9779016,24.3493066 12.5385711,24.2652259 C10.1217669,24.1817272 7.57038283,24.0026559 7.17949503,21.0134304 C7.14339531,20.7508603 7.12534545,20.4701068 7.12534545,20.1752428 C7.12534545,20.1752428 9.49781925,20.759443 12.504493,20.8982196 C14.3429797,20.983173 16.0671025,20.7897004 17.8182278,20.5792079 C21.1763685,20.1752428 24.1003017,18.0908293 24.4677968,16.1862145 C25.0468364,13.1859335 24.9990404,8.86451045 24.9990404,8.86451045 L24.9990404,8.86451045 Z" id="Fill-1" fill="#fff" mask="url(#mask-2)"></path>
                    </g>
                </g>
            </g>
        </g>
    </g>
</svg>
